X:2503
T:Dinnet House    [G]
N:Suggested tune for the Bramble Bush
C:trad. Scotland
R:jig
B:RSCDS 25-3
Z:Anselm Lingnau <anselm@strathspey.org>
M:6/8
L:1/8
K:G
B |\
"G"d2e dBG | "Am"ABG "D"FED | "G"d2e GBc | "D"def "C"gfe |\
"G"d2e "Em"dBG | "A"ABG "D"FED | "C"EFG "D7"FED | "G"G3 G2 |]
D |\
"G"GBd dBG | "Am"ABG "D"FED | "G"GBd dBG | "D"def "C"gfe |\
"G"gfe "Em"dcB | "A"ABG "D"FED | "C"EFG "D7"FED | "G"G3 G2 |]
